X:3527
T:Schaff's mit mir, Gott
T:BWV 514
C:Johann Sebastian Bach?
O:Germany
R:Chorale
Z:Transcribed by Frank Nordberg - http://www.musicaviva.com

V:1 Program 1 6 %Harpsichord
V:2 Program 1 6 bass %Harpsichord
M:3/4
L:1/4
K:C
V:1
cBc|(AB)c|(F3/2G/4A/4)G|ED/E/C|

V:2
C,D,E,|F,2E,|D,G,G,,|C,G,,C,,|

V:1
GAB|c2d|B/A/A2|G3:|

V:2
C,2B,,|A,,G,,^F,,|G,,D,D,,|G,,G,/=F,/E,/D,/:|

V:1
cde|(AB)c|d3/2e/4f/4e|d3|

V:2
E,F,/E,/D,/C,/|F,2E,|B,,G,,C,|G,,G,/A,/B,/G,/|

V:1
e/f/4g/4 (f/e/)  (d/c/)|(AB)c|fd2|c3 H |]

V:2
CC,E,|F,E,/D,/E,/C,/|A,F,G,|C,3 H |]

